X: 1
T:Eg heiter Anne Knutsdotter
C:anon.
O:Norway
Z:Transcribed by Frank Nordberg - http://www.musicaviva.com
M:2/4
L:1/16
Q:280
K:D
A2|"D"dcdf a2ab|"D"abaf d2f2|"E7"e2d2 c2d2|"A7"e4z2A2|
"D"dcdf a2ab|"D"abaf d2(de)|"D"f2f2 "A7"e2e2|"D"d4z2A2|
"D"defg a3f|"D"a3f "G"b2b2|"D"a3f a3f|a3f "A7"e2e2|d4z2|]
